!!!OTL: Fuer die Armen.
!!!OTL-incipit: BALD SINKT NUN DER MITTERNACHT
!!!ARE: Europa, Mitteleuropa, Deutschland
!!!SCT: F0799
!!!TXL: @@DE
!!!YEM: Copyright 1995, estate of Helmut Schaffrath.
**kern	**text
*ICvox	*
*clefG2	*
*M2/4	*
*k[f#]	*
*G:	*
!LO:TX:a:t=Innig.	!
!LO:TX:a:t=P:only the highest voice encoded:problem	!
{8.g	Bald
16g	ſinkt
=1	=1
8a	nun
8a	der
8b/	Mitter-
8b/	.
=2	=2
4a}	-nacht
{8.cc/	heil'-
16cc/	-ges
=3	=3
8b/	Dun-
16dd/L	-kel
16ccJ	.
8b/L	nie-
8aJ	.
=4	=4
8g	-der,
8r}	.
{8.g	und
16g	nach
=5	=5
8a	fro-
8a	-hem
8b/	Mah-
8b/	-le
=6	=6
4a}	lacht
{8.cc/	ſü-
16cc/	-ße
=7	=7
8b/	Ruh'
16dd/L	uns
16ccJ	.
8bL	wie-
8aJ	.
=8	=8
8g	-der.
8r}	.
{8.dd/	A-
16dd/	-ber,
=9	=9
8a	Freunde,
8a	.
8b/	eh'
8dd/	wir
=10	=10
4a}	ruhn,
{8dd/	eh'
8dd/	wir
=11	=11
16dd/L	lie-
16ccJ	.
16ee/L	-bend
16ddJ	.
8cc/L	ſchei-
8bJ	.
=12	=12
4a}	-den,
{8.g	ſeid
16a	erſt,
=13	=13
8b/	eif-
8a	-rig,
8.b/	wohl-
16cc/	-ʒu-
=14	=14
4dd/}	-thun,
{8.cc/	lin-
16cc/	-dert
=15	=15
8b/	Men-
16cc/L	-ſchen-
16aJ	.
8g/L	-lei-
8f#J	.
=16	=16
4g}	-den.
==	==
!!!AGN: Geselligkeits -, Moral - Lied
!!!ONB: ESAC (Essen Associative Code) Database: FINK
!!!AMT: simple duple
!!!AIN: vox
!!!EED: Helmut Schaffrath
!!!EEV: 1.0
!!Text: Zschiedrich 
!!!GTL: Liedertafel- und Gesellschaftslieder
!!!source: Musikalischer Hausschatz der Deutschen. Eine Sammlung von über 1000 Liedern und Gesängen mit Singstimmen und Klavierbegleitung. Leipzig, Litterarisches Verlags-Haus.
!!!page: 552
!!!URL-scan: https://www.digitale-sammlungen.de/en/view/bsb11144622?page=502
!!!ENC: Anna Maria Matuszewska
!!!EEV: 2024/08/06
*-	*-
